Costumes/beetle.svg

<?xml version="1.0" encoding="UTF-8" standalone="no"?>
<svg
   version="1.1"
   width="84.292763"
   height="75.517296"
   id="svg28"
   sodipodi:docname="beetle.svg"
   xmlns:inkscape="http://www.inkscape.org/namespaces/inkscape"
   xmlns:sodipodi="http://sodipodi.sourceforge.net/DTD/sodipodi-0.dtd"
   xmlns="http://www.w3.org/2000/svg"
   xmlns:svg="http://www.w3.org/2000/svg">
  <defs
     id="defs32" />
  <sodipodi:namedview
     id="namedview30"
     pagecolor="#ffffff"
     bordercolor="#000000"
     borderopacity="0.25"
     inkscape:showpageshadow="2"
     inkscape:pageopacity="0.0"
     inkscape:pagecheckerboard="0"
     inkscape:deskcolor="#d1d1d1" />
  <!-- Exported by Scratch - http://scratch.mit.edu/ -->
  <g
     id="ID0.4356587138026953"
     transform="matrix(0.90249997,0,0,0.90249997,-0.28871494,-0.49912301)">
    <g
       id="Lime_Green_Leg">
      <path
         id="ID0.014040753711014986"
         fill="#d4fc6a"
         d="m 5.012,100.529 c -1.367,0 -2.667,-0.503 -3.475,-1.346 -0.431,-0.449 -0.658,-0.94 -0.64,-1.384 0.44,-3.609 2.475,-13.125 3.886,-13.804 0.049,-0.01 0.151,-0.019 0.278,-0.019 0.699,0 2.124,0.281 3.773,0.607 2.507,0.497 5.619,1.113 7.947,1.113 0.734,0 1.354,-0.063 1.841,-0.188 3.319,-0.849 8.695,-5 9.738,-5.824 0.936,-0.678 1.749,-1.016 2.463,-1.016 1.734,0 2.178,2.064 2.182,2.086 v 10e-4 c -0.161,0.278 -3.617,6.135 -9.966,7.331 -1.536,0.29 -3.353,0.438 -5.401,0.438 -3.458,0 -6.777,-0.418 -8.447,-0.667 L 7.708,87.636 8.074,89.09 c 1.172,4.659 1.609,9.979 -0.677,10.939 -0.787,0.333 -1.59,0.5 -2.385,0.5 v 0 z"
         transform="matrix(0.77378094,0,0,0.77378094,0.4,0.9)" />
      <path
         id="ID0.06063009100034833"
         d="m 30.824,79.67 c 0.598,0 0.931,0.564 1.088,0.946 -0.845,1.273 -4.013,5.539 -9.06,6.489 -1.474,0.278 -3.228,0.42 -5.215,0.42 -3.394,0 -6.656,-0.411 -8.298,-0.656 l -2.966,-0.442 0.732,2.909 c 1.454,5.779 1.053,9.291 -0.092,9.772 -0.667,0.278 -1.339,0.42 -2.001,0.42 -1.084,0 -2.139,-0.397 -2.753,-1.038 C 2.002,98.222 1.914,98.001 1.9,97.877 2.343,94.52 3.97,86.687 5.217,84.981 c 0.672,0.04 2.012,0.305 3.43,0.585 2.543,0.504 5.709,1.131 8.135,1.131 0.829,0 1.512,-0.071 2.089,-0.219 3.486,-0.892 8.952,-5.096 10.083,-5.987 0.759,-0.544 1.388,-0.821 1.87,-0.821 m 0,-2 c -0.932,0 -1.925,0.392 -3.074,1.225 -0.06,0.047 -6.037,4.793 -9.374,5.646 -0.406,0.104 -0.943,0.156 -1.594,0.156 -2.224,0 -5.286,-0.605 -7.746,-1.093 -1.774,-0.351 -3.176,-0.628 -3.974,-0.628 -0.208,0 -0.384,0.018 -0.537,0.055 -2.539,0.608 -4.621,14.59 -4.626,14.727 -0.03,0.718 0.296,1.47 0.917,2.117 0.993,1.035 2.562,1.653 4.196,1.653 0.931,0 1.863,-0.194 2.773,-0.575 3.466,-1.455 2.13,-8.646 1.26,-12.105 1.86,0.277 5.146,0.678 8.593,0.678 10e-4,0 10e-4,0 10e-4,0 2.107,0 3.986,-0.152 5.586,-0.455 6.805,-1.281 10.494,-7.547 10.648,-7.814 l 0.19,-0.328 -0.077,-0.373 C 33.781,79.558 32.855,77.67 30.824,77.67 v 0 2 0 z"
         transform="matrix(0.77378094,0,0,0.77378094,0.4,0.9)" />
    </g>
    <path
       id="Pink_Leg"
       fill="#ff1557"
       stroke="#000000"
       stroke-width="2"
       d="m 54.904,84.965 c 0.427,-1.157 0.76,-4.873 0.76,-4.873 l 7.812,-2.709 c 0,0 -1.531,9.396 -7.203,12.783 -5.67,3.39 -11.713,4.508 -11.713,4.508 0,0 8.895,7.39 4.812,11.236 -4.084,3.848 -10.609,-7.142 -10.6,-8.652 0.009,-1.51 -0.424,-4.268 5.031,-5.646 5.457,-1.376 9.539,-2.416 11.101,-6.647 z"
       transform="matrix(0.77378094,0,0,0.77378094,0.4,0.9)" />
    <path
       id="Light_Blue_Leg"
       fill="#59c9ee"
       stroke="#000000"
       stroke-width="2"
       d="m 83.953,73.417 h -4.246 c 0,0 6.701,6.477 9.932,10.861 3.227,4.387 3.525,12.355 4.068,14.064 0.541,1.709 7.727,4.369 11.232,5.693 3.505,1.324 5.223,-4.402 3.271,-6.938 -1.953,-2.534 -10.812,-3.589 -10.812,-3.589 0,0 -1.889,-6.486 -4.869,-12.118 -2.981,-5.63 -8.576,-7.973 -8.576,-7.973 v 0 z"
       transform="matrix(0.77378094,0,0,0.77378094,0.4,0.9)" />
    <path
       id="Blue_Leg_1_"
       fill="#35abbf"
       stroke="#000000"
       stroke-width="2"
       d="m 28.373,27.566 c 0,0 -6.166,-4.916 -9.75,-5.832 C 15.039,20.816 6.123,23.566 4.758,23.24 3.395,22.912 0.963,11.014 0.898,9.443 0.832,7.873 3.875,5.734 7.398,7.211 10.92,8.687 7.67,19.632 7.67,19.632 c 0,0 8.941,-1.693 15.369,-0.482 6.432,1.213 9.967,7.332 9.967,7.332"
       transform="matrix(0.77378094,0,0,0.77378094,0.4,0.9)" />
    <path
       id="Yellow_Leg"
       fill="#ffc300"
       stroke="#000000"
       stroke-width="2"
       d="m 54.904,22.279 c 0.427,1.156 0.76,4.871 0.76,4.871 l 7.812,2.709 c 0,0 -1.531,-9.396 -7.203,-12.785 -5.67,-3.387 -11.713,-4.506 -11.713,-4.506 0,0 8.895,-7.388 4.812,-11.236 -4.084,-3.848 -10.609,7.141 -10.6,8.652 0.009,1.511 -0.424,4.269 5.031,5.646 5.457,1.378 9.539,2.417 11.101,6.649 z"
       transform="matrix(0.77378094,0,0,0.77378094,0.4,0.9)" />
    <path
       id="Dark_Green_Leg_1_"
       fill="#80c34f"
       stroke="#000000"
       stroke-width="2"
       d="m 83.953,33.828 h -4.246 c 0,0 6.701,-6.475 9.932,-10.863 3.227,-4.387 3.525,-12.355 4.068,-14.064 0.541,-1.709 7.727,-4.369 11.232,-5.695 3.506,-1.324 5.223,4.404 3.271,6.939 -1.953,2.537 -10.812,3.59 -10.812,3.59 0,0 -1.889,6.488 -4.869,12.119 -2.98,5.631 -8.576,7.974 -8.576,7.974 v 0 z"
       transform="matrix(0.77378094,0,0,0.77378094,0.4,0.9)" />
    <path
       id="Top_Antenna"
       fill="#ff6d00"
       stroke="#000000"
       stroke-width="2"
       d="m 96.396,39.066 c 0,0 2.977,-7.666 8.9,-12.959 3.805,-3.398 9.426,-5.771 10.221,-5.973 0.793,-0.201 -1.469,-14.613 -1.18,-14.195 4.365,6.293 5.199,17.127 5.199,17.127 0,0 -6,1.166 -13.158,6.584 -7.158,5.416 -7.008,11.543 -7.008,11.543 l -2.974,-2.127 z"
       transform="matrix(0.77378094,0,0,0.77378094,0.4,0.9)" />
    <path
       id="Bottom_Antenna"
       fill="#ff6d00"
       stroke="#000000"
       stroke-width="2"
       d="m 96.396,68.178 c 0,0 2.977,7.666 8.9,12.957 3.805,3.396 9.426,5.771 10.221,5.976 0.793,0.201 -1.469,14.61 -1.18,14.194 4.365,-6.295 5.199,-17.129 5.199,-17.129 0,0 -6,-1.166 -13.158,-6.582 C 99.22,72.176 99.37,66.051 99.37,66.051 l -2.974,2.127 z"
       transform="matrix(0.77378094,0,0,0.77378094,0.4,0.9)" />
    <g
       id="Body">
      <path
         id="Wing_Fill_1_"
         fill="#8761d4"
         d="m 71.83,63.125 c -2.567,-7.912 -8.647,-8.56 -8.832,-8.576 H 4.083 c 1.256,16.625 29.757,29.776 52.896,23.353 5.058,-1.401 9.905,-3.688 14.575,-4.729 0.653,-1.74 1.711,-5.633 0.276,-10.048 z"
         transform="matrix(0.77378094,0,0,0.77378094,0.4,0.9)" />
      <path
         id="Wing_Fill"
         fill="#8761d4"
         d="M 4.091,52.111 H 62.98 c 0,0 6.242,-0.545 8.85,-8.576 1.324,-4.073 0.525,-7.704 -0.119,-9.608 C 67.055,32.813 62.164,30.471 56.982,28.921 34.095,22.073 5.53,35.539 4.091,52.111 Z"
         transform="matrix(0.77378094,0,0,0.77378094,0.4,0.9)" />
      <path
         id="Head_Fill"
         fill="#ff6d00"
         d="m 102.069,53.412 c 0,-10.801 -9.995,-18.852 -25.541,-18.852 -0.464,0 -0.931,-0.027 -1.397,-0.066 0.396,1.686 0.722,4.866 -0.561,9.554 -1.455,5.326 -4.914,7.977 -7.677,9.281 2.763,1.304 6.222,3.957 7.677,9.284 1.307,4.782 0.848,8.228 0.371,10.048 0.385,-0.027 0.768,-0.041 1.148,-0.041 16.196,0 25.98,-8.405 25.98,-19.208 z"
         transform="matrix(0.77378094,0,0,0.77378094,0.4,0.9)" />
      <path
         id="Outline"
         fill="#231f20"
         d="m 78.261,32.176 c -6.529,0 -13.473,-3.81 -20.992,-6.06 -25.214,-7.544 -56.867,8.878 -56.867,27.302 0,18.424 31.455,34.356 56.869,27.301 7.208,-2.002 14.029,-5.674 20.523,-5.674 17.391,0 27.895,-10.029 27.895,-21.627 0,-11.599 -10.734,-21.242 -27.428,-21.242 z m -3.32,40.485 c 0.477,-1.82 0.936,-5.266 -0.371,-10.048 -1.455,-5.327 -4.914,-7.979 -7.677,-9.284 2.763,-1.304 6.222,-3.956 7.677,-9.281 1.281,-4.688 0.957,-7.868 0.561,-9.554 0.468,0.039 0.935,0.066 1.397,0.066 15.546,0 25.541,8.051 25.541,18.852 0,10.803 -9.784,19.208 -25.979,19.208 -0.382,0 -0.764,0.013 -1.149,0.041 z M 56.98,28.921 c 5.184,1.55 10.073,3.893 14.73,5.006 0.645,1.904 1.442,5.535 0.119,9.608 -2.607,8.031 -8.851,8.576 -8.851,8.576 H 4.091 C 5.53,35.539 34.095,22.073 56.98,28.921 Z M 56.979,77.902 C 33.839,84.325 5.339,71.174 4.083,54.549 h 58.915 c 0.185,0.018 6.265,0.664 8.832,8.576 1.437,4.412 0.377,8.308 -0.274,10.045 -4.672,1.043 -9.519,3.33 -14.577,4.732 z"
         transform="matrix(0.77378094,0,0,0.77378094,0.4,0.9)" />
    </g>
    <g
       id="Eye">
      <g
         id="White_1_">
        <path
           id="ID0.4698791243135929"
           fill="#ffffff"
           d="m 91.356,51.686 c -0.187,0 -0.372,-0.013 -0.556,-0.041 -1.094,-0.163 -2.122,-0.829 -2.822,-1.827 -0.715,-1.019 -1.01,-2.246 -0.828,-3.456 0.335,-2.256 2.305,-4.025 4.484,-4.025 0.186,0 0.369,0.014 0.552,0.041 1.095,0.164 2.124,0.831 2.823,1.83 0.712,1.019 1.004,2.245 0.822,3.454 -0.335,2.256 -2.302,4.024 -4.475,4.024 v 0 z"
           transform="matrix(0.77378094,0,0,0.77378094,0.4,0.9)" />
        <path
           id="ID0.5066214520484209"
           d="m 91.634,43.337 c 0.136,0 0.271,0.01 0.404,0.03 1.693,0.253 3.105,2.135 2.805,4.146 -0.277,1.852 -1.906,3.173 -3.487,3.173 -0.138,0 -0.272,-0.01 -0.407,-0.03 -1.691,-0.252 -3.111,-2.133 -2.81,-4.146 0.275,-1.851 1.917,-3.173 3.495,-3.173 m 0,-2 c -2.663,0 -5.068,2.144 -5.475,4.88 -0.219,1.46 0.137,2.944 1,4.174 0.856,1.222 2.131,2.039 3.493,2.242 0.229,0.035 0.466,0.052 0.702,0.052 2.654,0 5.057,-2.142 5.465,-4.877 0.221,-1.463 -0.133,-2.945 -0.992,-4.175 -0.855,-1.223 -2.129,-2.042 -3.494,-2.245 -0.228,-0.033 -0.462,-0.051 -0.699,-0.051 v 0 2 0 z"
           transform="matrix(0.77378094,0,0,0.77378094,0.4,0.9)" />
      </g>
      <path
         id="Pupil_1_"
         d="m 93.517,45.291 c 0.484,0 0.922,0.209 1.24,0.547 0.317,0.337 0.514,0.803 0.514,1.318 0,0.515 -0.197,0.981 -0.514,1.318 -0.318,0.338 -0.756,0.547 -1.24,0.547 -0.484,0 -0.922,-0.209 -1.24,-0.547 -0.317,-0.337 -0.514,-0.803 -0.514,-1.318 0,-0.515 0.197,-0.981 0.514,-1.318 0.318,-0.338 0.756,-0.547 1.24,-0.547 z"
         transform="matrix(0.77378094,0,0,0.77378094,0.4,0.9)" />
    </g>
    <g
       id="Eye_1_">
      <g
         id="White">
        <path
           id="ID0.23315615905448794"
           fill="#ffffff"
           d="m 91.434,65.27 c -0.187,0 -0.372,-0.014 -0.556,-0.041 -1.094,-0.164 -2.123,-0.83 -2.822,-1.828 -0.715,-1.02 -1.01,-2.246 -0.828,-3.455 0.335,-2.256 2.305,-4.025 4.484,-4.025 0.186,0 0.369,0.015 0.552,0.041 1.095,0.164 2.124,0.83 2.823,1.83 0.711,1.019 1.004,2.244 0.822,3.453 -0.335,2.257 -2.302,4.025 -4.475,4.025 v 0 z"
           transform="matrix(0.77378094,0,0,0.77378094,0.4,0.9)" />
        <path
           id="ID0.6588016310706735"
           d="m 91.712,56.92 c 0.136,0 0.271,0.01 0.404,0.029 1.693,0.254 3.105,2.135 2.805,4.146 -0.277,1.854 -1.906,3.174 -3.487,3.174 -0.138,0 -0.272,-0.01 -0.407,-0.029 -1.691,-0.254 -3.111,-2.135 -2.811,-4.146 0.276,-1.851 1.918,-3.174 3.496,-3.174 m 0,-2 c -2.664,0 -5.068,2.145 -5.475,4.881 -0.219,1.461 0.137,2.943 0.999,4.174 0.856,1.223 2.132,2.039 3.494,2.242 0.229,0.035 0.466,0.053 0.702,0.053 2.654,0 5.057,-2.143 5.465,-4.877 0.221,-1.463 -0.133,-2.945 -0.992,-4.176 -0.855,-1.223 -2.13,-2.041 -3.494,-2.244 -0.228,-0.035 -0.462,-0.053 -0.699,-0.053 v 0 2 0 z"
           transform="matrix(0.77378094,0,0,0.77378094,0.4,0.9)" />
      </g>
      <path
         id="Pupil"
         d="m 93.595,58.874 c 0.484,0 0.922,0.209 1.24,0.547 0.317,0.337 0.514,0.803 0.514,1.318 0,0.515 -0.197,0.981 -0.514,1.318 -0.318,0.338 -0.756,0.547 -1.24,0.547 -0.484,0 -0.922,-0.209 -1.24,-0.547 -0.317,-0.337 -0.514,-0.803 -0.514,-1.318 0,-0.515 0.197,-0.981 0.514,-1.318 0.318,-0.338 0.756,-0.547 1.24,-0.547 z"
         transform="matrix(0.77378094,0,0,0.77378094,0.4,0.9)" />
    </g>
  </g>
</svg>

<svg version="1.1" width="94" height="85" xmlns="http://www.w3.org/2000/svg" xmlns:xlink="http://www.w3.org/1999/xlink">
  <!-- Exported by Scratch - http://scratch.mit.edu/ -->
  <g id="ID0.4356587138026953" transform="matrix(0.9024999737739563, 0, 0, 0.9024999737739563, 0.5, 0.05)">
    <g id="Lime_Green_Leg">
      <path id="ID0.014040753711014986" fill="#D4FC6A" d="M 5.012 100.529 C 3.645 100.529 2.345 100.026 1.537 99.183 C 1.106 98.734 0.879 98.243 0.897 97.799 C 1.337 94.190 3.372 84.674 4.783 83.995 C 4.832 83.985 4.934 83.976 5.061 83.976 C 5.760 83.976 7.185 84.257 8.834 84.583 C 11.341 85.080 14.453 85.696 16.781 85.696 C 17.515 85.696 18.135 85.633 18.622 85.508 C 21.941 84.659 27.317 80.508 28.360 79.684 C 29.296 79.006 30.109 78.668 30.823 78.668 C 32.557 78.668 33.001 80.732 33.005 80.754 L 33.005 80.755 C 32.844 81.033 29.388 86.890 23.039 88.086 C 21.503 88.376 19.686 88.524 17.638 88.524 C 14.180 88.524 10.861 88.106 9.191 87.857 L 7.708 87.636 L 8.074 89.090 C 9.246 93.749 9.683 99.069 7.397 100.029 C 6.610 100.362 5.807 100.529 5.012 100.529 L 5.012 100.529 L 5.012 100.529 L 5.012 100.529 Z " transform="matrix(0.7737809419631958, 0, 0, 0.7737809419631958, 0.4, 0.9)"/>
      <path id="ID0.06063009100034833" d="M 30.824 79.670 C 31.422 79.670 31.755 80.234 31.912 80.616 C 31.067 81.889 27.899 86.155 22.852 87.105 C 21.378 87.383 19.624 87.525 17.637 87.525 C 14.243 87.525 10.981 87.114 9.339 86.869 L 6.373 86.427 L 7.105 89.336 C 8.559 95.115 8.158 98.627 7.013 99.108 C 6.346 99.386 5.674 99.528 5.012 99.528 C 3.928 99.528 2.873 99.131 2.259 98.490 C 2.002 98.222 1.914 98.001 1.900 97.877 C 2.343 94.520 3.970 86.687 5.217 84.981 C 5.889 85.021 7.229 85.286 8.647 85.566 C 11.190 86.070 14.356 86.697 16.782 86.697 C 17.611 86.697 18.294 86.626 18.871 86.478 C 22.357 85.586 27.823 81.382 28.954 80.491 C 29.713 79.947 30.342 79.670 30.824 79.670 M 30.824 77.670 C 29.892 77.670 28.899 78.062 27.750 78.895 C 27.690 78.942 21.713 83.688 18.376 84.541 C 17.970 84.645 17.433 84.697 16.782 84.697 C 14.558 84.697 11.496 84.092 9.036 83.604 C 7.262 83.253 5.860 82.976 5.062 82.976 C 4.854 82.976 4.678 82.994 4.525 83.031 C 1.986 83.639 -0.096 97.621 -0.101 97.758 C -0.131 98.476 0.195 99.228 0.816 99.875 C 1.809 100.910 3.378 101.528 5.012 101.528 C 5.943 101.528 6.875 101.334 7.785 100.953 C 11.251 99.498 9.915 92.307 9.045 88.848 C 10.905 89.125 14.191 89.526 17.638 89.526 C 17.639 89.526 17.639 89.526 17.639 89.526 C 19.746 89.526 21.625 89.374 23.225 89.071 C 30.030 87.790 33.719 81.524 33.873 81.257 L 34.063 80.929 L 33.986 80.556 C 33.781 79.558 32.855 77.670 30.824 77.670 L 30.824 77.670 L 30.824 79.670 L 30.824 79.670 Z " transform="matrix(0.7737809419631958, 0, 0, 0.7737809419631958, 0.4, 0.9)"/>
    </g>
    <path id="Pink_Leg" fill="#FF1557" stroke="#000000" stroke-width="2" d="M 54.904 84.965 C 55.331 83.808 55.664 80.092 55.664 80.092 L 63.476 77.383 C 63.476 77.383 61.945 86.779 56.273 90.166 C 50.603 93.556 44.560 94.674 44.560 94.674 C 44.560 94.674 53.455 102.064 49.372 105.910 C 45.288 109.758 38.763 98.768 38.772 97.258 C 38.781 95.748 38.348 92.990 43.803 91.612 C 49.260 90.236 53.342 89.196 54.904 84.965 L 54.904 84.965 L 54.904 84.965 Z " transform="matrix(0.7737809419631958, 0, 0, 0.7737809419631958, 0.4, 0.9)"/>
    <path id="Light_Blue_Leg" fill="#59C9EE" stroke="#000000" stroke-width="2" d="M 83.953 73.417 L 79.707 73.417 C 79.707 73.417 86.408 79.894 89.639 84.278 C 92.866 88.665 93.164 96.633 93.707 98.342 C 94.248 100.051 101.434 102.711 104.939 104.035 C 108.444 105.359 110.162 99.633 108.210 97.097 C 106.257 94.563 97.398 93.508 97.398 93.508 C 97.398 93.508 95.509 87.022 92.529 81.390 C 89.548 75.760 83.953 73.417 83.953 73.417 L 83.953 73.417 L 83.953 73.417 L 83.953 73.417 Z " transform="matrix(0.7737809419631958, 0, 0, 0.7737809419631958, 0.4, 0.9)"/>
    <path id="Blue_Leg_1_" fill="#35ABBF" stroke="#000000" stroke-width="2" d="M 28.373 27.566 C 28.373 27.566 22.207 22.650 18.623 21.734 C 15.039 20.816 6.123 23.566 4.758 23.240 C 3.395 22.912 0.963 11.014 0.898 9.443 C 0.832 7.873 3.875 5.734 7.398 7.211 C 10.920 8.687 7.670 19.632 7.670 19.632 C 7.670 19.632 16.611 17.939 23.039 19.150 C 29.471 20.363 33.006 26.482 33.006 26.482 " transform="matrix(0.7737809419631958, 0, 0, 0.7737809419631958, 0.4, 0.9)"/>
    <path id="Yellow_Leg" fill="#FFC300" stroke="#000000" stroke-width="2" d="M 54.904 22.279 C 55.331 23.435 55.664 27.150 55.664 27.150 L 63.476 29.859 C 63.476 29.859 61.945 20.463 56.273 17.074 C 50.603 13.687 44.560 12.568 44.560 12.568 C 44.560 12.568 53.455 5.180 49.372 1.332 C 45.288 -2.516 38.763 8.473 38.772 9.984 C 38.781 11.495 38.348 14.253 43.803 15.630 C 49.260 17.008 53.342 18.047 54.904 22.279 L 54.904 22.279 L 54.904 22.279 Z " transform="matrix(0.7737809419631958, 0, 0, 0.7737809419631958, 0.4, 0.9)"/>
    <path id="Dark_Green_Leg_1_" fill="#80C34F" stroke="#000000" stroke-width="2" d="M 83.953 33.828 L 79.707 33.828 C 79.707 33.828 86.408 27.353 89.639 22.965 C 92.866 18.578 93.164 10.610 93.707 8.901 C 94.248 7.192 101.434 4.532 104.939 3.206 C 108.445 1.882 110.162 7.610 108.210 10.145 C 106.257 12.682 97.398 13.735 97.398 13.735 C 97.398 13.735 95.509 20.223 92.529 25.854 C 89.549 31.485 83.953 33.828 83.953 33.828 L 83.953 33.828 L 83.953 33.828 L 83.953 33.828 Z " transform="matrix(0.7737809419631958, 0, 0, 0.7737809419631958, 0.4, 0.9)"/>
    <path id="Top_Antenna" fill="#FF6D00" stroke="#000000" stroke-width="2" d="M 96.396 39.066 C 96.396 39.066 99.373 31.400 105.296 26.107 C 109.101 22.709 114.722 20.336 115.517 20.134 C 116.310 19.933 114.048 5.521 114.337 5.939 C 118.702 12.232 119.536 23.066 119.536 23.066 C 119.536 23.066 113.536 24.232 106.378 29.650 C 99.220 35.066 99.370 41.193 99.370 41.193 L 96.396 39.066 L 96.396 39.066 L 96.396 39.066 Z " transform="matrix(0.7737809419631958, 0, 0, 0.7737809419631958, 0.4, 0.9)"/>
    <path id="Bottom_Antenna" fill="#FF6D00" stroke="#000000" stroke-width="2" d="M 96.396 68.178 C 96.396 68.178 99.373 75.844 105.296 81.135 C 109.101 84.531 114.722 86.906 115.517 87.111 C 116.310 87.312 114.048 101.721 114.337 101.305 C 118.702 95.010 119.536 84.176 119.536 84.176 C 119.536 84.176 113.536 83.010 106.378 77.594 C 99.220 72.176 99.370 66.051 99.370 66.051 L 96.396 68.178 L 96.396 68.178 L 96.396 68.178 Z " transform="matrix(0.7737809419631958, 0, 0, 0.7737809419631958, 0.4, 0.9)"/>
    <g id="Body">
      <path id="Wing_Fill_1_" fill="#8761D4" d="M 71.830 63.125 C 69.263 55.213 63.183 54.565 62.998 54.549 L 4.083 54.549 C 5.339 71.174 33.840 84.325 56.979 77.902 C 62.037 76.501 66.884 74.214 71.554 73.173 C 72.207 71.433 73.265 67.540 71.830 63.125 L 71.830 63.125 L 71.830 63.125 Z " transform="matrix(0.7737809419631958, 0, 0, 0.7737809419631958, 0.4, 0.9)"/>
      <path id="Wing_Fill" fill="#8761D4" d="M 4.091 52.111 L 62.980 52.111 C 62.980 52.111 69.222 51.566 71.830 43.535 C 73.154 39.462 72.355 35.831 71.711 33.927 C 67.055 32.813 62.164 30.471 56.982 28.921 C 34.095 22.073 5.530 35.539 4.091 52.111 L 4.091 52.111 L 4.091 52.111 Z " transform="matrix(0.7737809419631958, 0, 0, 0.7737809419631958, 0.4, 0.9)"/>
      <path id="Head_Fill" fill="#FF6D00" d="M 102.069 53.412 C 102.069 42.611 92.074 34.560 76.528 34.560 C 76.064 34.560 75.597 34.533 75.131 34.494 C 75.527 36.180 75.853 39.360 74.570 44.048 C 73.115 49.374 69.656 52.025 66.893 53.329 C 69.656 54.633 73.115 57.286 74.570 62.613 C 75.877 67.395 75.418 70.841 74.941 72.661 C 75.326 72.634 75.709 72.620 76.089 72.620 C 92.285 72.620 102.069 64.215 102.069 53.412 L 102.069 53.412 L 102.069 53.412 Z " transform="matrix(0.7737809419631958, 0, 0, 0.7737809419631958, 0.4, 0.9)"/>
      <path id="Outline" fill="#231F20" d="M 78.261 32.176 C 71.732 32.176 64.788 28.366 57.269 26.116 C 32.055 18.572 0.402 34.994 0.402 53.418 C 0.402 71.842 31.857 87.774 57.271 80.719 C 64.479 78.717 71.300 75.045 77.794 75.045 C 95.185 75.045 105.689 65.016 105.689 53.418 C 105.689 41.819 94.955 32.176 78.261 32.176 L 78.261 32.176 L 78.261 32.176 Z M 74.941 72.661 C 75.418 70.841 75.877 67.395 74.570 62.613 C 73.115 57.286 69.656 54.634 66.893 53.329 C 69.656 52.025 73.115 49.373 74.570 44.048 C 75.851 39.360 75.527 36.180 75.131 34.494 C 75.599 34.533 76.066 34.560 76.528 34.560 C 92.074 34.560 102.069 42.611 102.069 53.412 C 102.069 64.215 92.285 72.620 76.090 72.620 C 75.708 72.620 75.326 72.633 74.941 72.661 L 74.941 72.661 L 74.941 72.661 Z M 56.980 28.921 C 62.164 30.471 67.053 32.814 71.710 33.927 C 72.355 35.831 73.152 39.462 71.829 43.535 C 69.222 51.566 62.978 52.111 62.978 52.111 L 4.091 52.111 C 5.530 35.539 34.095 22.073 56.980 28.921 L 56.980 28.921 L 56.980 28.921 Z M 56.979 77.902 C 33.839 84.325 5.339 71.174 4.083 54.549 L 62.998 54.549 C 63.183 54.567 69.263 55.213 71.830 63.125 C 73.267 67.537 72.207 71.433 71.556 73.170 C 66.884 74.213 62.037 76.500 56.979 77.902 L 56.979 77.902 L 56.979 77.902 Z " transform="matrix(0.7737809419631958, 0, 0, 0.7737809419631958, 0.4, 0.9)"/>
    </g>
    <g id="Eye">
      <g id="White_1_">
        <path id="ID0.4698791243135929" fill="#FFFFFF" d="M 91.356 51.686 C 91.169 51.686 90.984 51.673 90.800 51.645 C 89.706 51.482 88.678 50.816 87.978 49.818 C 87.263 48.799 86.968 47.572 87.150 46.362 C 87.485 44.106 89.455 42.337 91.634 42.337 C 91.820 42.337 92.003 42.351 92.186 42.378 C 93.281 42.542 94.310 43.209 95.009 44.208 C 95.721 45.227 96.013 46.453 95.831 47.662 C 95.496 49.918 93.529 51.686 91.356 51.686 L 91.356 51.686 L 91.356 51.686 L 91.356 51.686 Z " transform="matrix(0.7737809419631958, 0, 0, 0.7737809419631958, 0.4, 0.9)"/>
        <path id="ID0.5066214520484209" d="M 91.634 43.337 C 91.770 43.337 91.905 43.347 92.038 43.367 C 93.731 43.620 95.143 45.502 94.843 47.513 C 94.566 49.365 92.937 50.686 91.356 50.686 C 91.218 50.686 91.084 50.676 90.949 50.656 C 89.258 50.404 87.838 48.523 88.139 46.510 C 88.414 44.659 90.056 43.337 91.634 43.337 M 91.634 41.337 C 88.971 41.337 86.566 43.481 86.159 46.217 C 85.940 47.677 86.296 49.161 87.159 50.391 C 88.015 51.613 89.290 52.430 90.652 52.633 C 90.881 52.668 91.118 52.685 91.354 52.685 C 94.008 52.685 96.411 50.543 96.819 47.808 C 97.040 46.345 96.686 44.863 95.827 43.633 C 94.972 42.410 93.698 41.591 92.333 41.388 C 92.105 41.355 91.871 41.337 91.634 41.337 L 91.634 41.337 L 91.634 43.337 L 91.634 43.337 Z " transform="matrix(0.7737809419631958, 0, 0, 0.7737809419631958, 0.4, 0.9)"/>
      </g>
      <path id="Pupil_1_" d="M 93.517 45.291 C 94.001 45.291 94.439 45.500 94.757 45.838 C 95.074 46.175 95.271 46.641 95.271 47.156 C 95.271 47.671 95.074 48.137 94.757 48.474 C 94.439 48.812 94.001 49.021 93.517 49.021 C 93.033 49.021 92.595 48.812 92.277 48.474 C 91.960 48.137 91.763 47.671 91.763 47.156 C 91.763 46.641 91.960 46.175 92.277 45.838 C 92.595 45.500 93.033 45.291 93.517 45.291 L 93.517 45.291 Z " transform="matrix(0.7737809419631958, 0, 0, 0.7737809419631958, 0.4, 0.9)"/>
    </g>
    <g id="Eye_1_">
      <g id="White">
        <path id="ID0.23315615905448794" fill="#FFFFFF" d="M 91.434 65.270 C 91.247 65.270 91.062 65.256 90.878 65.229 C 89.784 65.065 88.755 64.399 88.056 63.401 C 87.341 62.381 87.046 61.155 87.228 59.946 C 87.563 57.690 89.533 55.921 91.712 55.921 C 91.898 55.921 92.081 55.936 92.264 55.962 C 93.359 56.126 94.388 56.792 95.087 57.792 C 95.798 58.811 96.091 60.036 95.909 61.245 C 95.574 63.502 93.607 65.270 91.434 65.270 L 91.434 65.270 L 91.434 65.270 L 91.434 65.270 Z " transform="matrix(0.7737809419631958, 0, 0, 0.7737809419631958, 0.4, 0.9)"/>
        <path id="ID0.6588016310706735" d="M 91.712 56.920 C 91.848 56.920 91.983 56.930 92.116 56.949 C 93.809 57.203 95.221 59.084 94.921 61.095 C 94.644 62.949 93.015 64.269 91.434 64.269 C 91.296 64.269 91.162 64.259 91.027 64.240 C 89.336 63.986 87.916 62.105 88.216 60.094 C 88.492 58.243 90.134 56.920 91.712 56.920 M 91.712 54.920 C 89.048 54.920 86.644 57.065 86.237 59.801 C 86.018 61.262 86.374 62.744 87.236 63.975 C 88.092 65.198 89.368 66.014 90.730 66.217 C 90.959 66.252 91.196 66.270 91.432 66.270 C 94.086 66.270 96.489 64.127 96.897 61.393 C 97.118 59.930 96.764 58.448 95.905 57.217 C 95.050 55.994 93.775 55.176 92.411 54.973 C 92.183 54.938 91.949 54.920 91.712 54.920 L 91.712 54.920 L 91.712 56.920 L 91.712 56.920 Z " transform="matrix(0.7737809419631958, 0, 0, 0.7737809419631958, 0.4, 0.9)"/>
      </g>
      <path id="Pupil" d="M 93.595 58.874 C 94.079 58.874 94.517 59.083 94.835 59.421 C 95.152 59.758 95.349 60.224 95.349 60.739 C 95.349 61.254 95.152 61.720 94.835 62.057 C 94.517 62.395 94.079 62.604 93.595 62.604 C 93.111 62.604 92.673 62.395 92.355 62.057 C 92.038 61.720 91.841 61.254 91.841 60.739 C 91.841 60.224 92.038 59.758 92.355 59.421 C 92.673 59.083 93.111 58.874 93.595 58.874 L 93.595 58.874 Z " transform="matrix(0.7737809419631958, 0, 0, 0.7737809419631958, 0.4, 0.9)"/>
    </g>
  </g>
</svg>
